actions/22/dialog-apply.svg

<?xml version="1.0" encoding="UTF-8" standalone="no"?>
<!-- Created with Inkscape (http://www.inkscape.org/) -->

<svg
   xmlns:dc="http://purl.org/dc/elements/1.1/"
   xmlns:cc="http://creativecommons.org/ns#"
   xmlns:rdf="http://www.w3.org/1999/02/22-rdf-syntax-ns#"
   xmlns:svg="http://www.w3.org/2000/svg"
   xmlns="http://www.w3.org/2000/svg"
   xmlns:xlink="http://www.w3.org/1999/xlink"
   xmlns:inkscape="http://www.inkscape.org/namespaces/inkscape"
   version="1.0"
   width="22"
   height="22"
   id="svg2841">
  <defs
     id="defs2843">
    <linearGradient
       id="linearGradient5105-262-943-861">
      <stop
         id="stop2487"
         style="stop-color:#0d0d0d;stop-opacity:1"
         offset="0" />
      <stop
         id="stop2489"
         style="stop-color:#0d0d0d;stop-opacity:0"
         offset="1" />
    </linearGradient>
    <radialGradient
       cx="11.25"
       cy="19.03125"
       r="8.0625"
       fx="11.25"
       fy="19.03125"
       id="radialGradient4811"
       xlink:href="#linearGradient5105-262-943-861"
       gradientUnits="userSpaceOnUse"
       gradientTransform="matrix(1,0,0,0.282946,0,13.64644)" />
    <linearGradient
       id="linearGradient2264">
      <stop
         id="stop2266"
         style="stop-color:#d7e866;stop-opacity:1"
         offset="0" />
      <stop
         id="stop2268"
         style="stop-color:#8cab2a;stop-opacity:1"
         offset="1" />
    </linearGradient>
    <linearGradient
       x1="-86.12886"
       y1="2.0690987"
       x2="-93.088425"
       y2="31.137911"
       id="linearGradient4813"
       xlink:href="#linearGradient2264"
       gradientUnits="userSpaceOnUse"
       gradientTransform="matrix(0.5112838,-0.1216744,0.12241,0.5082113,55.78301,-4.2077143)" />
    <linearGradient
       id="linearGradient3400">
      <stop
         id="stop3402"
         style="stop-color:#ffffff;stop-opacity:1"
         offset="0" />
      <stop
         id="stop3404"
         style="stop-color:#ffffff;stop-opacity:0"
         offset="1" />
    </linearGradient>
    <linearGradient
       x1="20.494444"
       y1="6.0097799"
       x2="20.494444"
       y2="47.760197"
       id="linearGradient3597"
       xlink:href="#linearGradient3400"
       gradientUnits="userSpaceOnUse"
       gradientTransform="matrix(0.5025885,0,0,0.4995683,0.1940048,-0.2334739)" />
  </defs>
  <metadata
     id="metadata2846">
    <rdf:RDF>
      <cc:Work
         rdf:about="">
        <dc:format>image/svg+xml</dc:format>
        <dc:type
           rdf:resource="http://purl.org/dc/dcmitype/StillImage" />
      </cc:Work>
    </rdf:RDF>
  </metadata>
  <g
     id="layer1">
    <path
       d="m 17.175043,2.5050734 c -0.281317,-0.028378 -0.561,0.1085751 -0.70554,0.3715025 L 10.311123,14.076693 6.3516823,10.94736 C 5.9989924,10.755797 5.5589567,10.879032 5.3662362,11.229603 l -1.7755804,2.265914 c -0.1927162,0.350565 -0.063069,0.787827 0.2896181,0.979387 0,0 7.2294421,5.935012 7.2383621,5.939402 0.08266,0.0449 0.169102,0.06749 0.256971,0.07853 0.28704,0.03605 0.58079,-0.098 0.728339,-0.3664 L 20.409339,5.0216833 c 0.192718,-0.350569 0.06307,-0.7878285 -0.289616,-0.9793887 L 17.454815,2.5886997 c -0.08817,-0.047891 -0.185999,-0.074167 -0.279772,-0.083626 z"
       inkscape:connector-curvature="0"
       id="path1542"
       style="fill:url(#linearGradient4813);fill-opacity:1;fill-rule:nonzero;stroke:#699536;stroke-width:1.00278974;stroke-linecap:round;stroke-linejoin:round;stroke-miterlimit:4;stroke-opacity:1;stroke-dasharray:none;stroke-dashoffset:0;marker:none;visibility:visible;display:inline;overflow:visible" />
    <path
       d="M 17.214217,3.6150802 10.621037,15.59425 6.0429748,11.993376 C 5.5430026,12.593 5.1940896,13.084983 4.6268853,13.793063 c 0,0 6.6811997,5.45065 6.7616737,5.534366 0.25102,-0.404598 7.891687,-14.3280177 8.003506,-14.540862 -0.167431,-0.1153442 -2.12007,-1.1251725 -2.177848,-1.1714868 z"
       inkscape:connector-curvature="0"
       id="path1544"
       style="opacity:0.4;fill:none;stroke:url(#linearGradient3597);stroke-width:1.00278974;stroke-linecap:round;stroke-linejoin:miter;stroke-miterlimit:4;stroke-opacity:1;stroke-dasharray:none;stroke-dashoffset:0;marker:none;visibility:visible;display:inline;overflow:visible" />
  </g>
</svg>

<?xml version="1.0" encoding="UTF-8" standalone="no"?>
<!-- Created with Inkscape (http://www.inkscape.org/) -->
<svg
   xmlns:dc="http://purl.org/dc/elements/1.1/"
   xmlns:cc="http://creativecommons.org/ns#"
   xmlns:rdf="http://www.w3.org/1999/02/22-rdf-syntax-ns#"
   xmlns:svg="http://www.w3.org/2000/svg"
   xmlns="http://www.w3.org/2000/svg"
   xmlns:xlink="http://www.w3.org/1999/xlink"
   xmlns:sodipodi="http://sodipodi.sourceforge.net/DTD/sodipodi-0.dtd"
   xmlns:inkscape="http://www.inkscape.org/namespaces/inkscape"
   width="22"
   height="22"
   id="svg2841"
   sodipodi:version="0.32"
   inkscape:version="0.46"
   version="1.0"
   sodipodi:docname="dialog-apply.svg"
   inkscape:output_extension="org.inkscape.output.svg.inkscape">
  <defs
     id="defs2843">
    <linearGradient
       id="linearGradient5105-262-943-861"
       inkscape:collect="always">
      <stop
         style="stop-color:#0d0d0d;stop-opacity:1;"
         id="stop2487"
         offset="0" />
      <stop
         style="stop-color:#0d0d0d;stop-opacity:0;"
         id="stop2489"
         offset="1" />
    </linearGradient>
    <radialGradient
       inkscape:collect="always"
       xlink:href="#linearGradient5105-262-943-861"
       id="radialGradient4811"
       gradientUnits="userSpaceOnUse"
       gradientTransform="matrix(1,0,0,0.282946,0,13.64644)"
       cx="11.25"
       cy="19.03125"
       fx="11.25"
       fy="19.03125"
       r="8.0625" />
    <linearGradient
       id="linearGradient2264">
      <stop
         id="stop2266"
         offset="0"
         style="stop-color:#d7e866;stop-opacity:1;" />
      <stop
         id="stop2268"
         offset="1"
         style="stop-color:#8cab2a;stop-opacity:1;" />
    </linearGradient>
    <linearGradient
       inkscape:collect="always"
       xlink:href="#linearGradient2264"
       id="linearGradient4813"
       gradientUnits="userSpaceOnUse"
       gradientTransform="matrix(0.5112838,-0.1216744,0.12241,0.5082113,55.78301,-4.2077143)"
       x1="-86.12886"
       y1="2.0690987"
       x2="-93.088425"
       y2="31.137911" />
    <linearGradient
       inkscape:collect="always"
       id="linearGradient3400">
      <stop
         style="stop-color:#ffffff;stop-opacity:1;"
         offset="0"
         id="stop3402" />
      <stop
         style="stop-color:#ffffff;stop-opacity:0;"
         offset="1"
         id="stop3404" />
    </linearGradient>
    <linearGradient
       inkscape:collect="always"
       xlink:href="#linearGradient3400"
       id="linearGradient3597"
       gradientUnits="userSpaceOnUse"
       gradientTransform="matrix(0.5025885,0,0,0.4995683,0.1940048,-0.2334739)"
       x1="20.494444"
       y1="6.0097799"
       x2="20.494444"
       y2="47.760197" />
  </defs>
  <sodipodi:namedview
     id="base"
     pagecolor="#ffffff"
     bordercolor="#666666"
     borderopacity="1.0"
     inkscape:pageopacity="0.0"
     inkscape:pageshadow="2"
     inkscape:zoom="11.197802"
     inkscape:cx="16"
     inkscape:cy="16"
     inkscape:current-layer="layer1"
     showgrid="true"
     inkscape:grid-bbox="true"
     inkscape:document-units="px"
     inkscape:window-width="640"
     inkscape:window-height="720"
     inkscape:window-x="798"
     inkscape:window-y="24" />
  <metadata
     id="metadata2846">
    <rdf:RDF>
      <cc:Work
         rdf:about="">
        <dc:format>image/svg+xml</dc:format>
        <dc:type
           rdf:resource="http://purl.org/dc/dcmitype/StillImage" />
      </cc:Work>
    </rdf:RDF>
  </metadata>
  <g
     id="layer1"
     inkscape:label="Layer 1"
     inkscape:groupmode="layer">
    <path
       style="fill:url(#linearGradient4813);fill-opacity:1;fill-rule:nonzero;stroke:#699536;stroke-width:1.00278974;stroke-linecap:round;stroke-linejoin:round;marker:none;marker-start:none;marker-mid:none;marker-end:none;stroke-miterlimit:4;stroke-dasharray:none;stroke-dashoffset:0;stroke-opacity:1;visibility:visible;display:inline;overflow:visible"
       d="M 17.175043,2.5050734 C 16.893726,2.4766952 16.614043,2.6136485 16.469503,2.8765759 L 10.311123,14.076693 L 6.3516823,10.94736 C 5.9989924,10.755797 5.5589567,10.879032 5.3662362,11.229603 L 3.5906558,13.495517 C 3.3979396,13.846082 3.5275865,14.283344 3.8802739,14.474904 C 3.8802739,14.474904 11.109716,20.409916 11.118636,20.414306 C 11.201296,20.459205 11.287738,20.481796 11.375607,20.492832 C 11.662647,20.528883 11.956397,20.394835 12.103946,20.126432 L 20.409339,5.0216833 C 20.602057,4.6711143 20.472412,4.2338548 20.119723,4.0422946 L 17.454815,2.5886997 C 17.366641,2.540809 17.268816,2.5145329 17.175043,2.5050734 z"
       id="path1542"
       sodipodi:nodetypes="cccccccssccccc" />
    <path
       style="opacity:0.4;fill:none;fill-opacity:1;fill-rule:nonzero;stroke:url(#linearGradient3597);stroke-width:1.00278974;stroke-linecap:round;stroke-linejoin:miter;marker:none;marker-start:none;marker-mid:none;marker-end:none;stroke-miterlimit:4;stroke-dasharray:none;stroke-dashoffset:0;stroke-opacity:1;visibility:visible;display:inline;overflow:visible"
       d="M 17.214217,3.6150802 L 10.621037,15.59425 L 6.0429748,11.993376 C 5.5430026,12.593 5.1940896,13.084983 4.6268853,13.793063 C 4.6268853,13.793063 11.308085,19.243713 11.388559,19.327429 C 11.639579,18.922831 19.280246,4.9994113 19.392065,4.786567 C 19.224634,4.6712228 17.271995,3.6613945 17.214217,3.6150802 z"
       id="path1544"
       sodipodi:nodetypes="ccccccc" />
  </g>
</svg>
